src/lib/packages/icons/src/assets/line/user-times.svg

<svg width="24" height="24" viewBox="0 0 24 24" fill="none" xmlns="http://www.w3.org/2000/svg">
<path d="M10.009 10.75C12.353 10.75 14.259 8.843 14.259 6.5C14.259 4.157 12.353 2.25 10.009 2.25C7.66503 2.25 5.75903 4.157 5.75903 6.5C5.75903 8.843 7.66503 10.75 10.009 10.75ZM10.009 3.75C11.526 3.75 12.759 4.983 12.759 6.5C12.759 8.017 11.526 9.25 10.009 9.25C8.49203 9.25 7.25903 8.017 7.25903 6.5C7.25903 4.983 8.49203 3.75 10.009 3.75ZM12 12.25H8C3.756 12.25 2.25 15.357 2.25 18.019C2.25 20.425 3.58305 21.75 6.00305 21.75H13.9969C16.4169 21.75 17.75 20.425 17.75 18.019C17.75 15.357 16.244 12.25 12 12.25ZM13.9969 20.25H6.00305C4.42405 20.25 3.75 19.583 3.75 18.019C3.75 17.018 4.057 13.75 8 13.75H12C15.943 13.75 16.25 17.017 16.25 18.019C16.25 19.583 15.5759 20.25 13.9969 20.25ZM21.53 11.498C21.823 11.791 21.823 12.266 21.53 12.559C21.384 12.705 21.192 12.7791 21 12.7791C20.808 12.7791 20.616 12.706 20.47 12.559L19 11.089L17.53 12.559C17.384 12.705 17.192 12.7791 17 12.7791C16.808 12.7791 16.616 12.706 16.47 12.559C16.177 12.266 16.177 11.791 16.47 11.498L17.9399 10.028L16.47 8.55798C16.177 8.26498 16.177 7.78995 16.47 7.49695C16.763 7.20395 17.238 7.20395 17.531 7.49695L19.001 8.96704L20.4709 7.49695C20.7639 7.20395 21.239 7.20395 21.532 7.49695C21.825 7.78995 21.825 8.26498 21.532 8.55798L20.062 10.028L21.53 11.498Z" fill="currentColor"/>
</svg>

<svg xmlns="http://www.w3.org/2000/svg" width="24" height="24" fill="none"><path fill="currentColor" d="M10.009 10.75a4.255 4.255 0 0 0 4.25-4.25 4.255 4.255 0 0 0-4.25-4.25 4.255 4.255 0 0 0-4.25 4.25 4.255 4.255 0 0 0 4.25 4.25Zm0-7a2.752 2.752 0 0 1 2.75 2.75 2.752 2.752 0 0 1-2.75 2.75 2.752 2.752 0 0 1-2.75-2.75 2.752 2.752 0 0 1 2.75-2.75ZM12 12.25H8c-4.244 0-5.75 3.107-5.75 5.769 0 2.406 1.333 3.731 3.753 3.731h7.994c2.42 0 3.753-1.325 3.753-3.731 0-2.662-1.506-5.769-5.75-5.769Zm1.997 8H6.003c-1.579 0-2.253-.667-2.253-2.231 0-1.001.307-4.269 4.25-4.269h4c3.943 0 4.25 3.267 4.25 4.269 0 1.564-.674 2.231-2.253 2.231Zm7.533-8.752a.75.75 0 0 1-1.06 1.061L19 11.089l-1.47 1.47a.748.748 0 0 1-1.06 0 .75.75 0 0 1 0-1.061l1.47-1.47-1.47-1.47a.75.75 0 0 1 1.061-1.061l1.47 1.47 1.47-1.47a.75.75 0 0 1 1.061 1.061l-1.47 1.47 1.468 1.47Z"/></svg>
